icon/cg/studio.svg

<svg width="24" height="24" fill="none" xmlns="http://www.w3.org/2000/svg"><path d="M17 13h-4v4h4v-4Z" fill="currentColor"/><path fill-rule="evenodd" clip-rule="evenodd" d="M3 3h18v18H3V3Zm2 2h14v14H5V5Z" fill="currentColor"/></svg>

<svg viewBox="0 0 24 24" fill="none" xmlns="http://www.w3.org/2000/svg" height="1em" width="1em">
  <path d="M17 13H13V17H17V13Z" fill="currentColor"/>
  <path fill-rule="evenodd" clip-rule="evenodd" d="M3 3H21V21H3V3ZM5 5H19V19H5V5Z" fill="currentColor"/>
</svg>
